X:1
T:Title
%%score { ( 1 4 ) | ( 2 3 5 ) }
L:1/8
Q:1/4=116
M:3/4
K:C
V:1 treble nm="Grand Piano"
V:4 treble 
V:2 bass 
V:3 bass 
V:5 bass 
V:1
 [G,E]2 C2 D2 | E4 E2 | G4 F2 | F4 FF | E4 C2 | E2 D2 C2 | B,6- |[M:2/4] B,4 |[M:1/4] B,2 | %9
w: H.~P.~Danks * *|||||||||
[M:3/4] B,2 C2 D2 | [F,D]2 C2 B,2 | [E,C]2[K:treble] D2 _E2 | E4 z2 | D2 G2 B2 | B2 A2 D2 | %15
w: ||||||
 [B,G-]4 G2- | G6 | G2 E2 c2 | [FB]2- [DF-B-]2 [DF-B-]2 | [DFB]4 F2 | F2 E2 F2 | [_EA]6[K:bass] | %22
w: |||||||
[M:2/4][K:treble] [EG]4 |[M:1/4] [_B,EG]2 |[M:3/4] G2 D2 G2 | B4 z2 | [B,G-]4 G2- | G6 | %28
w: ||||||
 [G,CE]2 [G,DF]2 [A,_E^F]2 | [EG]4 z2 | e2 B2 d2 | c4 cc | c2 E2 A2 | A2 D2 [B,G]2 | C6- | C6 |] %36
w: ||||||||
V:2
 z2 E,2 F,2 | G,4 C2 | B,4 A,2 | A,4 A,2 | G,4 E,2 | G,2 F,2 E,2 | [G,,D,]6- |[M:2/4] [G,,D,]4 | %8
[M:1/4] [G,,D,]2 |[M:3/4] D,2 z2 z2 | z2 E,2 D,2 | z2 F,2 ^F,2 | G,2 z2 [^C,_B,]2 | z6 | C6 | %15
 z2 D,2 E,2 | z2 A,2 G,2 | E2 C2 E2 | G,2 G,2 G,2 | G,4 D2 | D2 ^C2 D2 | [C,^F,]2 C,2 C,2 | %22
[M:2/4] z2 A,2 |[M:1/4] ^C,2 |[M:3/4] [D,B,D]2 [D,B,]2 [D,B,D]2 | [D,D]4 [D,^F,C]2 | z2 D,2 E,2 | %27
 F,2 A,2 G,2 | C,2 C,2 C,2 | z2 C2 [C,G,]2 | [E,^G,]4 [G,B,E]2 | [A,E]4 [^F,A,_E][F,A,E] | %32
 E2 C2 [D,^F,C]2 | [G,,F,]4 [G,,F,]2 | E,4 z2 | z6 |] %36
V:3
 C,6- | C,6- | C,6- | C,6- | C,6- | C,6 | x6 |[M:2/4] x4 |[M:1/4] x2 | %9
[M:3/4] G,,2- [G,,-E,]2 [G,,F,]2 | G,,6 | C,6 | C,4 z2 | B,4 G,2 | ^F,4 F,2 | G,,6 | G,,6 | x6 | %18
 x6 | x6 | x6 | x6 |[M:2/4] C,4 |[M:1/4] x2 |[M:3/4] x6 | G,2 z2 z2 | G,,6- | G,,6 | x6 | C,4 z2 | %30
 x6 | x6 | G,4 z2 | x6 | C,4- [C,-F,]2 | [C,E,]6 |] %36
V:4
 x6 | x6 | x6 | x6 | x6 | x6 | x6 |[M:2/4] x4 |[M:1/4] x2 |[M:3/4] x6 | x6 | x2[K:treble] x4 | %12
 z2 A,2 E2 | x6 | x6 | G,2 z2 C2 | [F,D]2 F2 E2 | x6 | D2 z2 z2 | x6 | x6 | z2[K:bass] ^F,2 F,2 | %22
[M:2/4][K:treble] G,2 z2 |[M:1/4] x2 |[M:3/4] x6 | z2 ^F,2 A2 | G,2 z2 C2 | D2 F2 E2 | x6 | %29
 G,2 z2 [Ee]2 | E4 z2 | x6 | x6 | B,4 z2 | z2 z2 A,2 | G,6 |] %36
V:5
 x6 | x6 | x6 | x6 | x6 | x6 | x6 |[M:2/4] x4 |[M:1/4] x2 |[M:3/4] x6 | x6 | x6 | x6 | D,6- | D,6 | %15
 x6 | x6 | x6 | x6 | x6 | x6 | x6 |[M:2/4] x4 |[M:1/4] x2 |[M:3/4] x6 | x6 | x6 | x6 | x6 | x6 | %30
 x6 | x6 | x6 | x6 | x6 | x6 |] %36

